src/svgs/mail.svg

<svg width="60" height="60" viewBox="0 0 60 60" fill="none" xmlns="http://www.w3.org/2000/svg">
<g clip-path="url(#clip0)">
<path d="M56.923 10H3.07699C1.38457 10 0 11.3846 0 13.0769V46.9231C0 48.6153 1.38457 50.0001 3.07699 50.0001H56.9231C58.6153 50.0001 60.0001 48.6155 60.0001 46.9231V13.0769C60 11.3846 58.6154 10 56.923 10ZM55.7684 12.3075L31.77 30.3078C31.3385 30.6361 30.6762 30.8416 29.9999 30.8385C29.3237 30.8416 28.6615 30.6361 28.2299 30.3078L4.23152 12.3075H55.7684ZM42.9492 31.4955L56.0262 47.6494C56.0393 47.6656 56.0554 47.6779 56.0693 47.6925H3.9307C3.94453 47.6772 3.9607 47.6656 3.97383 47.6494L17.0508 31.4955C17.4514 31.0001 17.3755 30.2739 16.8792 29.8723C16.3839 29.4716 15.6577 29.5476 15.2569 30.043L2.30766 46.0393V13.7499L26.846 32.1537C27.7684 32.8407 28.8906 33.143 29.9998 33.1461C31.1074 33.1437 32.2305 32.8414 33.1535 32.1537L57.6919 13.7499V46.039L44.743 30.043C44.3422 29.5477 43.6153 29.4715 43.1207 29.8723C42.6245 30.273 42.5483 31.0001 42.9492 31.4955Z" fill="#EE7D00"/>
</g>
<defs>
<clipPath id="clip0">
<rect width="60" height="60" fill="white"/>
</clipPath>
</defs>
</svg>

<svg width="60" height="60" fill="none" xmlns="http://www.w3.org/2000/svg"><g clip-path="url(#a)"><path d="M56.923 10H3.077A3.086 3.086 0 0 0 0 13.077v33.846A3.086 3.086 0 0 0 3.077 50h53.846A3.086 3.086 0 0 0 60 46.923V13.077A3.086 3.086 0 0 0 56.923 10Zm-1.155 2.307-23.998 18c-.431.33-1.094.535-1.77.532-.676.003-1.338-.203-1.77-.531l-23.998-18h51.536ZM42.95 31.496l13.077 16.153c.013.017.03.029.043.044H3.931c.014-.016.03-.027.043-.044L17.05 31.495a1.154 1.154 0 0 0-1.794-1.452L2.307 46.039V13.75l24.539 18.405c.922.687 2.045.989 3.154.992 1.107-.002 2.23-.305 3.154-.992L57.692 13.75v32.289L44.743 30.043a1.153 1.153 0 1 0-1.794 1.453Z" fill="#EE7D00"/></g><defs><clipPath id="a"><path fill="#fff" d="M0 0h60v60H0z"/></clipPath></defs></svg>
